X: 41314
T: Tunes With Trevor
R: reel
M: 4/4
K: Amajor
CD|:E2AE cAGA|Bcdf a2gf|eaga fedc|Bffd cABG|
A2EA cAGA|Bcdf a2ba|geef edAB|1 cBAG A2CD:|2 cBAG A2AB||
c2ec acec|(3ccc ec acec|d2ed aded|e2Be bged|
c2ec acec|(3ccc ec acec|d2(3fed cAec|BcBG E2B2|
c2ec acec|(3ccc ec acec|d2ed aded|e2Be bgeg|
~a2ga bgee|dfed ecAe|faec dcBA|cBAG A2CD||

